X: 1289
T: Kürdî Seyir
C: Şefik Gürmeriç
O: Turkey
F: http://compmusic.upf.edu/node/140
N: kurdi--seyir--sofyan--1--sefik_gurmeric
N: makam= kurdi
N: form= seyir
N: usul= sofyan = 4/4
M: 4/4
L: 1/16
K: C _B   
Q: 1/4=60
%%MIDI tuningsystem comma53
d8 c4 d4  | e2fg fed2 cdcB A4  | a4 g2f2 e4 d4  | \
w:   |   |   | 
d2cd efed d8  | 
w:   | 
z4 c2d2 e2fg fed2  | c3B A2c2 B8  | A2B2 c2_7/8e2 d2c2 B2A2  | 
w:   |   |   | 
G4 c2BA A8  | |


